public/logo.svg

<svg width="158" height="158" viewBox="0 0 158 158" fill="none" xmlns="http://www.w3.org/2000/svg">
<rect width="158" height="158" rx="79" fill="black"/>
<path d="M36.8236 45.5087V33.921C36.8236 33.116 37.1761 32.4901 37.8811 32.0433C38.5861 31.5965 39.3321 31.5688 40.1191 31.9602L51.6956 37.754C52.5087 38.2156 52.9153 38.8692 52.9153 39.7149C52.9153 40.5605 52.5087 41.2141 51.6956 41.6757L40.1247 47.4695C39.334 47.8573 38.5861 47.8277 37.8811 47.3809C37.1724 46.9378 36.8236 46.3137 36.8236 45.5087ZM107.838 45.5087V33.921C107.838 33.116 108.192 32.4901 108.901 32.0433C109.609 31.5965 110.355 31.5688 111.139 31.9602L122.709 37.754C123.519 38.2156 123.924 38.8692 123.924 39.7149C123.924 40.5605 123.519 41.2141 122.709 41.6757L111.139 47.4695C110.352 47.8573 109.606 47.8277 108.901 47.3809C108.196 46.9341 107.841 46.31 107.838 45.5087ZM74.6973 40.8227V29.2295C74.6973 28.4281 75.0517 27.8041 75.7604 27.3573C76.4691 26.9104 77.2151 26.8827 77.9985 27.2742L89.5637 33.068C90.3768 33.5296 90.7834 34.1832 90.7834 35.0288C90.7834 35.8708 90.3768 36.5225 89.5637 36.9841L77.9985 42.7835C77.2114 43.1712 76.4654 43.1417 75.7604 42.6949C75.0554 42.2481 74.701 41.624 74.6973 40.8227ZM66.2822 127.985C54.5883 127.247 45.2835 125.616 38.3679 123.094C31.456 120.568 28 117.701 28 114.492V68.9001C28 66.9467 29.2701 65.1373 31.8103 63.4719C34.3543 61.8101 37.8923 60.3589 42.4244 59.1182C46.9602 57.8774 52.3446 56.8896 58.5776 56.1548C64.8106 55.4162 71.6181 55.047 79 55.047C86.3819 55.047 93.1894 55.4162 99.4224 56.1548C105.655 56.8896 111.04 57.8774 115.576 59.1182C120.108 60.3552 123.646 61.8064 126.19 63.4719C128.73 65.1373 130 66.9467 130 68.9001V114.486C130 117.721 126.52 120.594 119.559 123.105C112.599 125.62 103.274 127.247 91.5835 127.985C90.4197 128.077 89.4313 127.74 88.6181 126.971C87.8012 126.196 87.3928 125.236 87.3928 124.091V106.183H70.6072V123.947C70.6072 125.099 70.1783 126.083 69.3204 126.899C68.455 127.716 67.4422 128.077 66.2822 127.985ZM79 77.2087C88.2619 77.2087 96.9325 76.4831 105.012 75.0318C113.091 73.5769 119.127 71.6604 123.118 69.2823C121.898 67.3289 117.441 65.3921 109.745 63.4719C102.047 61.5516 91.798 60.5915 79 60.5915C66.202 60.5915 55.9553 61.5516 48.2601 63.4719C40.5612 65.3921 36.1037 67.3307 34.8877 69.2879C38.8752 71.6623 44.4964 73.5769 51.7515 75.0318C59.0066 76.4831 68.0894 77.2087 79 77.2087ZM65.0121 122.285V106.183C65.0121 104.699 65.5697 103.405 66.685 102.301C67.8041 101.193 69.1115 100.639 70.6072 100.639H87.3928C88.8923 100.639 90.1997 101.193 91.315 102.301C92.4303 103.405 92.9879 104.697 92.9879 106.178V122.285C101.81 121.621 108.904 120.465 114.272 118.818C119.636 117.175 123.013 115.55 124.405 113.944V74.8214C118.273 77.6352 111.445 79.6588 103.921 80.8922C96.3973 82.1292 88.0903 82.7477 79 82.7477C69.9097 82.7477 61.6027 82.1292 54.0791 80.8922C46.5555 79.6588 39.7275 77.6352 33.5952 74.8214V113.949C34.9865 115.552 38.1496 117.177 43.0846 118.824C48.0195 120.47 55.3287 121.624 65.0121 122.285Z" fill="white"/>
</svg>

<svg xmlns="http://www.w3.org/2000/svg" width="158" height="158" fill="none"><rect width="158" height="158" fill="#000" rx="79"/><path fill="#fff" d="M36.82 45.5V33.93c0-.8.36-1.43 1.06-1.88.7-.44 1.45-.47 2.24-.08l11.58 5.8c.8.46 1.22 1.1 1.22 1.95 0 .85-.41 1.5-1.22 1.97l-11.58 5.79c-.79.39-1.53.36-2.24-.09a2.09 2.09 0 0 1-1.06-1.87Zm71.02 0V33.93c0-.8.35-1.43 1.06-1.88.7-.44 1.45-.47 2.24-.08l11.57 5.8c.8.46 1.21 1.1 1.21 1.95 0 .85-.4 1.5-1.21 1.97l-11.57 5.79c-.79.39-1.53.36-2.24-.09a2.11 2.11 0 0 1-1.06-1.87ZM74.7 40.83V29.23c0-.8.35-1.43 1.06-1.87.7-.45 1.46-.48 2.24-.09l11.56 5.8c.82.46 1.22 1.11 1.22 1.96 0 .84-.4 1.5-1.22 1.95L78 42.78c-.79.4-1.53.36-2.24-.09a2.12 2.12 0 0 1-1.06-1.87Zm-8.42 87.16c-11.7-.73-21-2.36-27.91-4.89-6.91-2.52-10.37-5.39-10.37-8.6V68.9c0-1.95 1.27-3.76 3.81-5.43 2.54-1.66 6.08-3.11 10.61-4.35a111.4 111.4 0 0 1 16.16-2.97c6.23-.73 13.04-1.1 20.42-1.1 7.38 0 14.19.37 20.42 1.1 6.23.74 11.62 1.73 16.16 2.97 4.53 1.24 8.07 2.69 10.61 4.35 2.54 1.67 3.81 3.48 3.81 5.43v45.59c0 3.23-3.48 6.1-10.44 8.62-6.96 2.51-16.29 4.14-27.98 4.88a3.7 3.7 0 0 1-2.96-1.02 3.81 3.81 0 0 1-1.23-2.88v-17.9H70.61v17.76c0 1.15-.43 2.13-1.29 2.95a3.81 3.81 0 0 1-3.04 1.08ZM79 77.22c9.26 0 17.93-.73 26.01-2.18 8.08-1.45 14.12-3.37 18.1-5.75-1.21-1.95-5.67-3.89-13.36-5.8-7.7-1.93-17.95-2.89-30.75-2.89s-23.04.96-30.74 2.88c-7.7 1.92-12.16 3.86-13.37 5.82 3.99 2.37 9.6 4.29 16.86 5.74 7.26 1.45 16.34 2.18 27.25 2.18Zm-13.99 45.08v-16.1c0-1.5.56-2.78 1.67-3.89a5.4 5.4 0 0 1 3.93-1.66h16.78c1.5 0 2.81.55 3.92 1.66a5.28 5.28 0 0 1 1.68 3.88v16.1c8.82-.66 15.91-1.81 21.28-3.46 5.37-1.64 8.74-3.27 10.14-4.88V74.82a79.9 79.9 0 0 1-20.49 6.07A154.16 154.16 0 0 1 79 82.75c-9.09 0-17.4-.62-24.92-1.86a79.92 79.92 0 0 1-20.48-6.07v39.13c1.39 1.6 4.55 3.23 9.48 4.87 4.94 1.65 12.25 2.8 21.93 3.47Z"/></svg>
